!!!COM: Gomółka, Mikołaj
!!!CDT: ~1535-after 1591
!!!OTL: Iakokolwiek szczęśćié ku mnie
!!!OTL@LAT: Benedicam dominum in omni tempore
!!!AGn: Motet; Psalm
!!!SCn: Gom2034
!!!SCn: Gom2034
!!!voices: 4
!!!CNT: Polish
!!!OCY: Poland
!!!LYR: Jan Kochanowski (1530-1584/08/22)
!!!GTL: Melodiae na Psałterz Polski
!!!EFL: 34/150
!!!PPR: Łazarz Andrysowicz
!!!PPP: Kraków
!!!PDT: 1580
!!!YEC: 2015 Marcin Konik
!!!ENC: Marcin Konik
!!!END: 2015/05/19
!!!EED: Marcin Konik
!!!EEV: 2015/05/19
!!!ONB: Translated from MusicXM and edited on 2015/03/06 by Marcin Konik
!!!CharacterEncoding: utf-8
!!muse2ps: i2I150v85,85,85,150Q16
**kern	**kern	**kern	**kern
*staff4	*staff3	*staff2	*staff1
*Ivox	*Ivox	*Ivox	*Ivox
*I"Bassus	*I"Tenor	*I"Altus	*I"Cantus
*I'B	*I'T	*I'A	*I'C
*clefF4	*clefC4	*clefC3	*clefC1
*k[b-]	*k[b-]	*k[b-]	*k[b-]
*M2/1	*M2/1	*M2/1	*M2/1
*met(C|)	*met(C|)	*met(C|)	*met(C|)
=1-	=1-	=1-	=1-
1GG	1G	1B	1d
2C	2G	2c	2e
2BB-	4B-	2d	2f
.	4A	.	.
=2	=2	=2	=2
2E-	4G	2d	2.g
.	4F	.	.
2E-	2G	2c	.
.	.	.	4a
2D	2F	2d	2b-
2D	2d	2f	2a
=3	=3	=3	=3
2E	2c	2e	2g
2F	2c	2a	4f
.	.	.	4e
2.G	2.B-	2.g	2d
.	.	.	4b-
4A	4c	4f	4a
=4	=4	=4	=4
2B-	2d	4e	4g
.	.	4d	4f
2B-	2B-	2g	4e
.	.	.	4d
1A	4c	2.a	4e
.	2d	.	4f
.	.	.	2e
.	4c#	4g	.
=5	=5	=5	=5
2D	2d	2f#	2d
2D	2d	2f	2a
2B-	2d	2f	2b-
2G	2B-	2g	2b-
=6	=6	=6	=6
2A	2c	2e	2a
2F	2A	2f	2cc
2G	4B-	4d	2b-
.	4c	4e	.
2D	2d	2f	4a
.	.	.	4b-
=7	=7	=7	=7
2E-	2B-	2e-	4a
.	.	.	4g
2C	4c	2e-	2g
.	4B-	.	.
2D	4A	2.d	2g
.	4G	.	.
2D	2A	.	2f#
.	.	4c	.
=8	=8	=8	=8
1GG	1G	1B	1g
1B-	1d	1f	1b-
=9	=9	=9	=9
2.E-	2.e-	2.g	2.b-
4E-	4e-	4g	4b-
2BB-	2d	2f	2b-
2BB-	2d	2f	2b-
=10	=10	=10	=10
2F	2c	2f	2a
2D	2f	2A	2a
2AA	2e	2c	2a
2BB-	2d	2B-	4f
.	.	.	4g
=11	=11	=11	=11
2AA	2e	2.c	2.a
2AA	2e	.	.
.	.	4B-	4g
2D	2d	2A	2f#
[2G	[2d	[2B-	[2g
=12	=12	=12	=12
2G]	2d]	2B-]	2g]
2C	2e	2c	2g
2F	2c	2A	2a
2D	2d	2f	2a
=13	=13	=13	=13
4BB-	1f	1b-	1dd
4C	.	.	.
4D	.	.	.
4E	.	.	.
2F	2f	2.a	2.cc
2C	2f	.	.
.	.	4g	4b-
=14	=14	=14	=14
2D	2f	2f	2a
2AA	2c	2e	2a
2BB-	2d	2d	2f
2GG	2B-	[2d	2g
=15	=15	=15	=15
1AA	1A	2d]	2e
.	.	2d-	4a
.	.	.	4g
1D	1A	1d	4f#
.	.	.	4e
.	.	.	2f#
=16	=16	=16	=16
0GG	0B	0d	0g
==	==	==	==
*-	*-	*-	*-
